svgs/regular/objects-align-top.svg

<svg xmlns="http://www.w3.org/2000/svg" viewBox="0 0 512 512"><!--! Font Awesome Pro 6.6.0 by @fontawesome - https://fontawesome.com License - https://fontawesome.com/license (Commercial License) Copyright 2024 Fonticons, Inc. --><path d="M24 0C10.7 0 0 10.7 0 24S10.7 48 24 48l464 0c13.3 0 24-10.7 24-24s-10.7-24-24-24L24 0zM176 176l0 288-64 0 0-288 64 0zm-64-48c-26.5 0-48 21.5-48 48l0 288c0 26.5 21.5 48 48 48l64 0c26.5 0 48-21.5 48-48l0-288c0-26.5-21.5-48-48-48l-64 0zm288 48l0 160-64 0 0-160 64 0zm-64-48c-26.5 0-48 21.5-48 48l0 160c0 26.5 21.5 48 48 48l64 0c26.5 0 48-21.5 48-48l0-160c0-26.5-21.5-48-48-48l-64 0z"/></svg>

<svg xmlns="http://www.w3.org/2000/svg" viewBox="0 0 512 512"><!--! Font Awesome Pro 6.4.2 by @fontawesome - https://fontawesome.com License - https://fontawesome.com/license (Commercial License) Copyright 2023 Fonticons, Inc. --><path d="M24 0C10.7 0 0 10.7 0 24S10.7 48 24 48H488c13.3 0 24-10.7 24-24s-10.7-24-24-24H24zM176 176V464H112V176h64zm-64-48c-26.5 0-48 21.5-48 48V464c0 26.5 21.5 48 48 48h64c26.5 0 48-21.5 48-48V176c0-26.5-21.5-48-48-48H112zm288 48V336H336V176h64zm-64-48c-26.5 0-48 21.5-48 48V336c0 26.5 21.5 48 48 48h64c26.5 0 48-21.5 48-48V176c0-26.5-21.5-48-48-48H336z"/></svg>
